icons/papirus/48x48/apps/palemoon.svg

<?xml version="1.0" encoding="UTF-8" standalone="no"?>
<!-- Created with Inkscape (http://www.inkscape.org/) -->

<svg
   xmlns:dc="http://purl.org/dc/elements/1.1/"
   xmlns:cc="http://creativecommons.org/ns#"
   xmlns:rdf="http://www.w3.org/1999/02/22-rdf-syntax-ns#"
   xmlns:svg="http://www.w3.org/2000/svg"
   xmlns="http://www.w3.org/2000/svg"
   xmlns:sodipodi="http://sodipodi.sourceforge.net/DTD/sodipodi-0.dtd"
   xmlns:inkscape="http://www.inkscape.org/namespaces/inkscape"
   id="svg2817"
   height="48"
   width="48"
   version="1.0"
   inkscape:version="0.91 r"
   sodipodi:docname="palemoon.svg">
  <sodipodi:namedview
     pagecolor="#ffffff"
     bordercolor="#666666"
     borderopacity="1"
     objecttolerance="10"
     gridtolerance="10"
     guidetolerance="10"
     inkscape:pageopacity="0"
     inkscape:pageshadow="2"
     inkscape:window-width="1600"
     inkscape:window-height="842"
     id="namedview16"
     showgrid="false"
     inkscape:zoom="7.54"
     inkscape:cx="24"
     inkscape:cy="24"
     inkscape:window-x="-4"
     inkscape:window-y="32"
     inkscape:window-maximized="1"
     inkscape:current-layer="svg2817" />
  <metadata
     id="metadata57">
    <rdf:RDF>
      <cc:Work
         rdf:about="">
        <dc:format>image/svg+xml</dc:format>
        <dc:type
           rdf:resource="http://purl.org/dc/dcmitype/StillImage" />
        <dc:title></dc:title>
      </cc:Work>
    </rdf:RDF>
  </metadata>
  <defs
     id="defs2819">
    <clipPath
       id="clipPath4186"
       clipPathUnits="userSpaceOnUse">
      <circle
         id="path4188"
         style="color:#000000"
         cy="26"
         cx="286"
         r="10"
         fill="url(#linearGradient4190)" />
    </clipPath>
  </defs>
  <g
     id="g4185">
    <circle
       id="path4230"
       style="color:#000000;fill:#37a0f2"
       cy="24"
       cx="24"
       r="20" />
    <path
       id="path4169"
       d="M 22.111328 4.1074219 A 20 20 0 0 0 14.873047 6.2070312 C 14.973687 6.527062 14.856307 6.8881735 14.488281 7.2070312 C 14.239276 7.4227953 14.035156 7.7589034 14.035156 7.9550781 C 14.035156 8.5547569 14.577447 9.4756018 15.009766 9.609375 C 15.585259 9.7874463 15.391592 10.400992 14.652344 10.740234 C 14.310023 10.897325 13.889386 11.348642 13.716797 11.744141 C 13.544207 12.139642 13.289556 12.530136 13.152344 12.611328 C 13.015074 12.692518 12.902344 13.001761 12.902344 13.298828 C 12.902344 13.713658 13.091712 13.914771 13.714844 14.164062 C 14.16109 14.342584 14.694946 14.472644 14.902344 14.453125 C 16.092874 14.341075 16.176319 15.034583 15.134766 16.390625 C 14.581806 17.110555 14.315969 17.291652 13.939453 17.201172 C 13.58803 17.116712 13.395974 17.216131 13.236328 17.564453 C 13.067551 17.932679 12.791837 18.058097 12.050781 18.109375 C 11.322372 18.159785 10.995886 18.307756 10.722656 18.707031 C 10.523467 18.998109 10.235416 19.234375 10.082031 19.234375 C 9.928645 19.234375 9.568363 19.429554 9.28125 19.667969 C 8.696767 20.153326 8.4685519 20.202171 8.2636719 19.884766 C 7.9928599 19.465222 7.4086245 19.677184 6.5390625 20.509766 C 5.7700985 21.246023 5.6769657 21.442938 5.7929688 22.082031 C 5.9993558 23.21913 6.6160855 24.228158 7.3203125 24.580078 C 7.9348235 24.887176 7.9467807 24.920298 7.5742188 25.314453 C 7.3598798 25.541236 6.9922085 25.784238 6.7578125 25.855469 C 6.0808395 26.061195 6.4618679 26.319216 7.6699219 26.472656 C 8.9062709 26.629678 9.2905306 27.078322 8.7128906 27.689453 C 8.3907556 28.030274 8.4088953 28.093697 8.9257812 28.417969 C 9.9358142 29.051614 10.738871 28.663608 9.7910156 28 C 9.1816686 27.573388 9.6077538 27.399393 10.501953 27.708984 C 11.214545 27.955692 11.355508 27.941658 11.777344 27.576172 C 12.641898 26.827031 13.581616 27.935041 12.791016 28.771484 C 12.287828 29.303839 12.440344 29.946396 13.091797 30.035156 C 13.379621 30.074386 13.977692 30.342256 14.421875 30.630859 C 14.866044 30.919461 15.350005 31.15625 15.496094 31.15625 C 15.642182 31.15625 16.05427 31.449014 16.412109 31.806641 C 17.13817 32.532247 17.541257 32.624375 17.746094 32.113281 C 17.992382 31.498744 17.893303 31.182097 17.230469 30.458984 C 16.702743 29.88325 15.845703 28.352849 15.845703 27.986328 C 15.845703 27.759682 16.717282 27.95185 17.205078 28.285156 C 17.510357 28.49377 18.004313 28.762761 18.302734 28.884766 C 18.621298 29.014971 18.951021 29.418917 19.101562 29.861328 C 19.337495 30.554641 19.430464 30.615234 20.261719 30.615234 L 21.166016 30.615234 L 21.302734 32.240234 C 21.467273 34.194776 21.623979 34.590708 22.294922 34.751953 C 22.789162 34.870717 23.316406 35.635991 23.316406 36.234375 C 23.316406 36.39344 22.960816 36.783032 22.527344 37.099609 C 21.989163 37.492634 21.757152 37.826756 21.792969 38.154297 C 21.837639 38.563271 21.745073 38.627008 21.166016 38.583984 C 20.792516 38.556194 20.14526 38.68713 19.728516 38.875 C 19.236055 39.096989 18.7018 39.168057 18.201172 39.078125 C 17.625097 38.974615 17.429688 39.014818 17.429688 39.240234 C 17.429688 39.405973 17.228496 39.716471 16.982422 39.929688 C 16.373885 40.456989 16.625334 40.735991 17.558594 40.568359 C 18.138652 40.464168 18.364943 40.510483 18.464844 40.759766 C 18.677803 41.291113 18.138029 42.051301 17.636719 41.925781 C 17.319407 41.846381 17.166809 41.954544 17.068359 42.330078 C 17.0335 42.463076 16.971238 42.575737 16.896484 42.671875 A 20 20 0 0 0 20.060547 43.607422 C 19.960713 43.415653 19.847249 43.242498 19.736328 43.164062 C 19.22092 42.799611 19.565703 41.85414 20.275391 41.683594 C 20.997827 41.509996 20.884018 41.040967 20.097656 40.951172 C 19.409404 40.872582 18.675724 40.175483 18.90625 39.818359 C 19.060818 39.578897 19.719985 39.613805 21.052734 39.929688 C 21.654571 40.072341 22.066495 39.786185 23.460938 38.259766 C 24.268366 37.375926 24.888802 37.007813 25.570312 37.007812 C 25.829843 37.007812 26.756661 36.769005 27.630859 36.476562 C 29.281363 35.924445 29.926017 35.944381 29.865234 36.546875 C 29.738776 37.800545 30.54646 37.759154 31.861328 36.445312 C 32.409339 35.897717 32.909587 35.50221 32.974609 35.564453 C 33.226146 35.805291 32.773762 36.978491 32.246094 37.453125 C 31.577372 38.054628 31.544204 38.434691 32.132812 38.736328 C 32.455303 38.901576 32.592095 39.237294 32.642578 39.990234 L 32.710938 41.017578 L 33.546875 41.017578 C 33.84012 41.017578 34.082798 41.057786 34.279297 41.132812 A 20 20 0 0 0 43.96875 24.626953 C 43.662778 23.973189 43.684788 23.577925 43.96875 23.132812 A 20 20 0 0 0 43.878906 22.011719 C 43.696528 22.003443 43.510876 21.995022 43.296875 22.003906 C 42.289305 22.045856 41.425781 21.64862 41.425781 21.142578 C 41.425781 21.035935 41.068371 20.595394 40.630859 20.164062 C 40.135296 19.675504 39.880583 19.244249 39.955078 19.019531 C 40.022638 18.81572 39.876715 18.48689 39.619141 18.263672 C 39.368372 18.046384 39.162109 17.696176 39.162109 17.486328 C 39.162109 17.151267 38.948848 17.109171 37.408203 17.146484 L 35.654297 17.189453 L 35.683594 18.917969 C 35.735654 21.946003 36.186542 22.731931 37.578125 22.224609 C 38.215083 21.992406 39.77997 22.168216 40.224609 22.521484 C 40.385519 22.649374 40.618588 23.113266 40.742188 23.552734 C 40.8658 23.992202 41.32415 24.752735 41.761719 25.242188 C 42.648265 26.233881 42.717108 26.620777 42.208984 27.785156 C 41.765682 28.800999 41.288361 28.683896 41.382812 27.582031 L 41.453125 26.761719 L 40.703125 26.902344 C 40.288159 26.980524 39.768015 27.287486 39.535156 27.589844 C 39.20322 28.020868 39.047649 28.084423 38.798828 27.886719 C 38.625471 27.748955 38.484375 27.457979 38.484375 27.242188 C 38.484375 27.026411 38.270136 26.786149 38.009766 26.707031 C 37.749395 26.627901 37.392488 26.234631 37.216797 25.832031 C 36.935758 25.188035 36.942745 24.991112 37.269531 24.208984 C 37.601096 23.415566 37.604355 23.284671 37.298828 22.992188 C 37.018642 22.72392 36.874209 22.715267 36.505859 22.935547 C 36.13553 23.156977 35.961342 23.140633 35.521484 22.845703 C 35.2275 22.648543 34.715289 22.486328 34.382812 22.486328 C 33.707803 22.486328 33.503906 22.15791 33.503906 21.072266 C 33.503906 20.06945 32.905713 19.704993 31.482422 19.835938 C 30.493998 19.926877 30.276143 19.861764 29.478516 19.248047 C 28.986252 18.869279 28.208319 17.9568 27.748047 17.21875 C 27.287761 16.4807 26.79255 15.709604 26.648438 15.505859 C 26.440072 15.211245 26.490727 14.928481 26.898438 14.125 L 27.412109 13.115234 L 26.326172 13.261719 C 24.393706 13.523057 24.003014 13.773497 24.833984 14.21875 C 25.157626 14.392167 25.171763 14.481257 24.921875 14.769531 C 24.758191 14.958362 24.68117 15.256952 24.751953 15.433594 C 24.822793 15.610237 24.733304 16.025912 24.552734 16.357422 C 24.372137 16.688931 24.220874 17.154162 24.214844 17.392578 C 24.195914 18.138299 22.919505 18.730789 21.498047 18.652344 C 19.343844 18.533471 19.169249 18.567454 18.404297 19.277344 C 17.44812 20.164683 17.32455 20.578445 17.769531 21.402344 C 18.201296 22.201769 18.966522 22.52082 20.292969 22.455078 C 21.47919 22.396238 21.613333 22.500943 21.341797 23.285156 C 21.111284 23.950821 20.336612 24.207481 19.8125 23.791016 C 19.408402 23.469903 18.015246 23.718063 17.587891 24.1875 C 17.408729 24.384306 17.142856 24.899741 16.998047 25.332031 C 16.748046 26.078271 16.675175 26.123627 15.554688 26.232422 C 14.43686 26.340971 14.329475 26.305153 13.525391 25.564453 C 12.627834 24.737625 12.475811 24.106463 12.908203 23.017578 C 13.099611 22.535548 13.242397 22.457159 13.753906 22.550781 C 14.767934 22.736377 15.167969 22.383837 15.167969 21.300781 C 15.167969 20.775576 15.065913 20.284612 14.941406 20.210938 C 14.816939 20.137268 14.714844 19.85894 14.714844 19.591797 C 14.714844 19.324654 14.587288 18.981153 14.431641 18.830078 C 14.204813 18.609901 14.237602 18.492088 14.599609 18.236328 C 14.848002 18.060839 15.256243 17.942687 15.505859 17.972656 C 15.75549 18.002636 16.443892 17.894836 17.037109 17.734375 C 17.894253 17.50253 18.145943 17.327543 18.261719 16.876953 C 18.48169 16.020884 19.018663 15.333984 19.46875 15.333984 C 20.179989 15.333984 20.194533 13.661798 19.503906 11.230469 C 19.401942 10.871374 19.121331 10.642677 18.625 10.519531 C 18.223462 10.419911 17.786047 10.145877 17.654297 9.9101562 C 17.522575 9.6744365 17.282228 9.4824219 17.119141 9.4824219 C 16.956068 9.4824219 16.637458 9.2872445 16.412109 9.0488281 C 16.185281 8.8088495 15.71592 8.6152344 15.359375 8.6152344 C 14.514451 8.6152344 14.500434 8.0333909 15.337891 7.7265625 C 16.223186 7.4022219 17.600506 7.8273652 17.933594 8.5273438 C 18.385231 9.4764127 18.885737 9.0803686 19.046875 7.6464844 C 19.246179 5.8729606 19.857615 5.3632813 21.787109 5.3632812 L 23.173828 5.3632812 L 22.566406 4.7558594 C 22.376745 4.5663202 22.220122 4.3345557 22.111328 4.1074219 z M 29.300781 4.7363281 C 29.262276 4.771547 29.224322 4.8002505 29.185547 4.8398438 C 28.721819 5.3133684 28.504423 5.3808768 27.787109 5.2714844 C 26.535156 5.0805614 26.69628 5.5846712 28.082031 6.1933594 C 28.831422 6.5225283 29.312749 6.8977287 29.476562 7.2773438 C 30.266891 9.1089083 30.810625 10.094878 31.083984 10.195312 C 31.636417 10.398283 31.965302 9.9906049 32.087891 8.9492188 C 32.228574 7.7543789 32.633158 7.5010721 33.359375 8.1542969 C 33.641198 8.4077944 34.034701 8.6152344 34.234375 8.6152344 C 34.854704 8.6152344 35.314453 8.8644618 35.314453 9.2011719 C 35.314453 9.3786304 35.523767 9.8061207 35.78125 10.152344 C 36.159816 10.66137 36.417188 10.783203 37.125 10.783203 C 37.99368 10.783203 38.526967 10.945728 39.615234 11.546875 C 39.632135 11.55621 39.649059 11.559434 39.666016 11.568359 A 20 20 0 0 0 29.300781 4.7363281 z M 4.0039062 23.914062 A 20 20 0 0 0 4 24 A 20 20 0 0 0 4.390625 27.841797 C 5.1151937 28.136999 5.3153989 28.020009 5.390625 27.345703 C 5.429455 26.997269 5.611682 26.601518 5.796875 26.464844 C 6.082964 26.253697 6.0314315 26.145698 5.4453125 25.746094 C 5.0659235 25.487428 4.6920064 25.035066 4.6152344 24.742188 C 4.5408413 24.458346 4.2891646 24.148003 4.0039062 23.914062 z M 10.298828 30.525391 C 10.11227 30.505781 9.8867047 30.606378 9.6367188 30.845703 C 9.1078117 31.352099 9.1876764 32.369497 9.7871094 32.771484 C 10.473641 33.231913 10.739415 33.09781 10.826172 32.248047 C 10.933285 31.199572 10.709272 30.568456 10.298828 30.525391 z M 13.693359 33.548828 C 13.489105 33.555628 13.264099 33.702137 13.039062 34.009766 C 12.800242 34.336218 12.73465 34.7572 12.826172 35.396484 C 12.93869 36.182139 12.88959 36.349904 12.478516 36.560547 C 11.950365 36.831185 11.837382 37.63506 12.269531 38.048828 C 12.69996 38.460948 13.109903 38.353275 13.257812 37.789062 C 13.468469 36.985456 14.644692 36.890644 15.449219 37.613281 C 15.791596 37.920815 16.072266 38.077108 16.072266 37.958984 C 16.072266 37.840901 15.715059 37.412196 15.279297 37.007812 C 14.611855 36.388413 14.488281 36.123989 14.488281 35.326172 C 14.488281 34.19956 14.142734 33.534636 13.693359 33.548828 z M 8.1191406 36.130859 A 20 20 0 0 0 8.5820312 36.714844 C 8.445699 36.504256 8.290071 36.301628 8.1191406 36.130859 z M 14.859375 39.201172 C 14.757584 39.236084 14.714844 39.362962 14.714844 39.585938 C 14.714844 39.811603 14.57052 40.048628 14.394531 40.113281 C 14.16086 40.199081 14.106654 40.470289 14.197266 41.117188 C 14.214246 41.238388 14.218693 41.335421 14.224609 41.435547 A 20 20 0 0 0 15.056641 41.863281 C 15.042902 41.517359 15.106114 41.110046 15.287109 40.599609 C 15.594037 39.734006 15.605001 39.516685 15.355469 39.365234 C 15.120667 39.222731 14.961166 39.166259 14.859375 39.201172 z "
       style="fill:#000000;fill-opacity:1;opacity:0.2" />
    <circle
       id="path4240"
       style="color:#000000;opacity:0;stroke-width:0.45455"
       clip-path="url(#clipPath4186)"
       transform="matrix(2,0,0,2,-548,-28)"
       cy="26"
       cx="286"
       r="10" />
    <circle
       id="path4242"
       style="color:#000000;opacity:0;stroke-width:0.90908998"
       clip-path="url(#clipPath4186)"
       transform="matrix(2,0,0,2,-548,-28)"
       cy="26"
       cx="286"
       r="10" />
    <path
       id="rect3436"
       d="M 24,4 C 12.921,4 4.002,12.92 4.002,24 c 0,0.16772 -0.004,0.33329 0,0.5 C 4.2662,13.654 13.089,5 24,5 c 10.911,0 19.734,8.6536 19.998,19.5 0.004,-0.16671 0,-0.33228 0,-0.5 C 43.998,12.92 35.079,4 24,4 Z"
       inkscape:connector-curvature="0"
       style="opacity:0.2;fill:#ffffff" />
    <path
       id="circle4330"
       style="color:#000000;opacity:0.3"
       d="M 43.979,23.418 A 20,20 0 0 1 24,43 20,20 0 0 1 4.022,23.582 20,20 0 0 0 4,24 20,20 0 0 0 24,44 20,20 0 0 0 44,24 20,20 0 0 0 43.979,23.418 Z"
       inkscape:connector-curvature="0" />
  </g>
</svg>

<?xml version="1.0" encoding="UTF-8" standalone="no"?>
<!-- Created with Inkscape (http://www.inkscape.org/) -->
<svg id="svg2817" xmlns:rdf="http://www.w3.org/1999/02/22-rdf-syntax-ns#" xmlns="http://www.w3.org/2000/svg" height="48" width="48" version="1.0" xmlns:cc="http://creativecommons.org/ns#" xmlns:dc="http://purl.org/dc/elements/1.1/">
 <metadata id="metadata57">
  <rdf:RDF>
   <cc:Work rdf:about="">
    <dc:format>image/svg+xml</dc:format>
    <dc:type rdf:resource="http://purl.org/dc/dcmitype/StillImage"/>
    <dc:title/>
   </cc:Work>
  </rdf:RDF>
 </metadata>
 <defs id="defs2819">
  <clipPath id="clipPath4186" clipPathUnits="userSpaceOnUse">
   <circle id="path4188" style="color:#000000" cx="286" cy="26" r="10" fill="url(#linearGradient4190)"/>
  </clipPath>
 </defs>
 <g id="g4185">
  <circle id="path4230" style="color:#000000" cx="24" cy="24" r="20" fill="#37a0f2"/>
  <path id="path4169" opacity=".2" d="m22.111 4.1074a20 20 0 0 0 -7.238 2.0996c0.101 0.3201-0.017 0.6812-0.385 1-0.249 0.2158-0.453 0.5519-0.453 0.7481 0 0.5997 0.542 1.5205 0.975 1.6543 0.575 0.178 0.382 0.7916-0.358 1.1306-0.342 0.157-0.763 0.609-0.935 1.004-0.173 0.396-0.427 0.786-0.565 0.867-0.137 0.082-0.25 0.391-0.25 0.688 0 0.415 0.19 0.616 0.813 0.865 0.446 0.179 0.98 0.309 1.187 0.289 1.191-0.112 1.274 0.582 0.233 1.938-0.553 0.72-0.819 0.901-1.196 0.81-0.351-0.084-0.543 0.015-0.703 0.363-0.168 0.369-0.444 0.494-1.185 0.545-0.729 0.051-1.055 0.199-1.328 0.598-0.2 0.291-0.488 0.527-0.641 0.527-0.1534 0-0.5136 0.196-0.8008 0.434-0.5844 0.485-0.8126 0.534-1.0175 0.217-0.2708-0.42-0.8551-0.208-1.7246 0.625-0.769 0.736-0.8621 0.933-0.7461 1.572 0.2064 1.137 0.8231 2.146 1.5273 2.498 0.6145 0.307 0.6265 0.34 0.2539 0.734-0.2143 0.227-0.582 0.47-0.8164 0.541-0.677 0.206-0.2959 0.464 0.9121 0.618 1.2364 0.157 1.6206 0.605 1.043 1.216-0.3221 0.341-0.304 0.405 0.2129 0.729 1.01 0.634 1.8132 0.246 0.8652-0.418-0.6093-0.427-0.1832-0.601 0.711-0.291 0.713 0.247 0.854 0.233 1.275-0.133 0.865-0.749 1.805 0.359 1.014 1.195-0.503 0.533-0.351 1.175 0.301 1.264 0.288 0.039 0.886 0.307 1.33 0.596 0.444 0.288 0.928 0.525 1.074 0.525s0.558 0.293 0.916 0.651c0.726 0.725 1.129 0.817 1.334 0.306 0.246-0.614 0.147-0.931-0.516-1.654-0.527-0.576-1.384-2.106-1.384-2.473 0-0.226 0.871-0.034 1.359 0.299 0.305 0.209 0.799 0.478 1.098 0.6 0.318 0.13 0.648 0.534 0.799 0.976 0.235 0.694 0.328 0.754 1.16 0.754h0.904l0.137 1.625c0.164 1.955 0.321 2.351 0.992 2.512 0.494 0.119 1.021 0.884 1.021 1.482 0 0.159-0.355 0.549-0.789 0.866-0.538 0.393-0.77 0.727-0.734 1.054 0.045 0.409-0.048 0.473-0.627 0.43-0.373-0.028-1.021 0.103-1.437 0.291-0.493 0.222-1.027 0.293-1.528 0.203-0.576-0.103-0.771-0.063-0.771 0.162 0 0.166-0.202 0.476-0.448 0.69-0.608 0.527-0.357 0.806 0.577 0.638 0.58-0.104 0.806-0.058 0.906 0.192 0.213 0.531-0.327 1.291-0.828 1.166-0.318-0.08-0.47 0.029-0.569 0.404-0.034 0.133-0.097 0.246-0.172 0.342a20 20 0 0 0 3.165 0.935c-0.1-0.191-0.214-0.365-0.325-0.443-0.515-0.364-0.17-1.31 0.539-1.48 0.723-0.174 0.609-0.643-0.177-0.733-0.689-0.078-1.422-0.776-1.192-1.133 0.155-0.239 0.814-0.204 2.147 0.112 0.602 0.142 1.013-0.144 2.408-1.67 0.807-0.884 1.428-1.252 2.109-1.252 0.26 0 1.187-0.239 2.061-0.531 1.65-0.553 2.295-0.533 2.234 0.07-0.126 1.254 0.681 1.212 1.996-0.102 0.548-0.547 1.049-0.943 1.114-0.881 0.251 0.241-0.201 1.414-0.729 1.889-0.669 0.602-0.702 0.982-0.113 1.283 0.322 0.166 0.459 0.501 0.51 1.254l0.068 1.028h0.836c0.293 0 0.536 0.04 0.732 0.115a20 20 0 0 0 9.69 -16.506c-0.306-0.654-0.284-1.049 0-1.494a20 20 0 0 0 -0.09 -1.121c-0.182-0.009-0.368-0.017-0.582-0.008-1.008 0.042-1.871-0.355-1.871-0.861 0-0.107-0.358-0.548-0.795-0.979-0.496-0.488-0.75-0.92-0.676-1.144 0.068-0.204-0.078-0.533-0.336-0.756-0.251-0.218-0.457-0.568-0.457-0.778 0-0.335-0.213-0.377-1.754-0.34l-1.754 0.043 0.03 1.729c0.052 3.028 0.503 3.814 1.894 3.307 0.637-0.233 2.202-0.057 2.647 0.296 0.161 0.128 0.394 0.592 0.517 1.032 0.124 0.439 0.582 1.2 1.02 1.689 0.886 0.992 0.955 1.379 0.447 2.543-0.443 1.016-0.921 0.899-0.826-0.203l0.07-0.82-0.75 0.14c-0.415 0.079-0.935 0.385-1.168 0.688-0.332 0.431-0.487 0.494-0.736 0.297-0.174-0.138-0.315-0.429-0.315-0.645s-0.214-0.456-0.474-0.535c-0.261-0.079-0.618-0.472-0.793-0.875-0.281-0.644-0.274-0.841 0.053-1.623 0.331-0.793 0.334-0.924 0.029-1.217-0.28-0.268-0.425-0.277-0.793-0.056-0.37 0.221-0.545 0.205-0.985-0.09-0.293-0.197-0.806-0.36-1.138-0.36-0.675 0-0.879-0.328-0.879-1.414 0-1.003-0.598-1.367-2.022-1.236-0.988 0.091-1.206 0.026-2.003-0.588-0.493-0.379-1.271-1.291-1.731-2.029s-0.955-1.509-1.1-1.713c-0.208-0.295-0.157-0.578 0.25-1.381l0.514-1.01-1.086 0.147c-1.932 0.261-2.323 0.511-1.492 0.957 0.324 0.173 0.338 0.262 0.088 0.551-0.164 0.188-0.241 0.487-0.17 0.664 0.071 0.176-0.019 0.592-0.199 0.923-0.181 0.332-0.332 0.797-0.338 1.036-0.019 0.745-1.295 1.338-2.717 1.259-2.154-0.119-2.329-0.085-3.094 0.625-0.956 0.888-1.079 1.301-0.634 2.125 0.431 0.8 1.197 1.119 2.523 1.053 1.186-0.059 1.32 0.046 1.049 0.83-0.231 0.666-1.005 0.922-1.53 0.506-0.404-0.321-1.797-0.073-2.224 0.397-0.179 0.196-0.445 0.712-0.59 1.144-0.25 0.746-0.323 0.792-1.443 0.9-1.118 0.109-1.226 0.073-2.03-0.668-0.897-0.826-1.049-1.458-0.617-2.546 0.192-0.482 0.334-0.561 0.846-0.467 1.014 0.185 1.414-0.167 1.414-1.25 0-0.525-0.102-1.016-0.227-1.09-0.124-0.074-0.226-0.352-0.226-0.619s-0.128-0.611-0.283-0.762c-0.227-0.22-0.194-0.338 0.168-0.594 0.248-0.175 0.656-0.293 0.906-0.263 0.249 0.03 0.938-0.078 1.531-0.239 0.857-0.231 1.109-0.406 1.225-0.857 0.22-0.856 0.757-1.543 1.207-1.543 0.711 0 0.726-1.672 0.035-4.104-0.102-0.359-0.383-0.587-0.879-0.71-0.402-0.1-0.839-0.374-0.971-0.6098-0.131-0.2358-0.372-0.4278-0.535-0.4278s-0.482-0.1952-0.707-0.4336c-0.227-0.24-0.696-0.4336-1.053-0.4336-0.845 0-0.859-0.5818-0.021-0.8886 0.885-0.3244 2.263 0.1008 2.596 0.8007 0.451 0.9491 0.952 0.5531 1.113-0.8808 0.199-1.7735 0.811-2.2832 2.74-2.2832h1.387l-0.608-0.6074c-0.189-0.1896-0.346-0.4213-0.455-0.6485zm7.19 0.6289c-0.039 0.0352-0.077 0.064-0.115 0.1035-0.464 0.4736-0.682 0.5411-1.399 0.4317-1.252-0.1909-1.091 0.3132 0.295 0.9219 0.749 0.3291 1.231 0.7043 1.395 1.0839 0.79 1.8316 1.334 2.8177 1.607 2.9177 0.552 0.203 0.881-0.2044 1.004-1.2458 0.141-1.1948 0.545-1.4481 1.271-0.7949 0.282 0.2535 0.676 0.4609 0.875 0.4609 0.621 0 1.08 0.2493 1.08 0.586 0 0.1774 0.21 0.6049 0.467 0.9508 0.379 0.509 0.636 0.631 1.344 0.631 0.869 0 1.402 0.163 2.49 0.764 0.017 0.009 0.034 0.012 0.051 0.021a20 20 0 0 0 -10.365 -6.8317zm-25.297 19.178a20 20 0 0 0 -0.0039 0.086 20 20 0 0 0 0.3906 3.842c0.7246 0.295 0.9248 0.178 1-0.496 0.0389-0.349 0.2211-0.744 0.4063-0.881 0.2861-0.211 0.2345-0.319-0.3516-0.719-0.3794-0.259-0.7533-0.711-0.8301-1.004-0.0744-0.284-0.326-0.594-0.6113-0.828zm6.2951 6.611c-0.187-0.019-0.4123 0.081-0.6623 0.321-0.5289 0.506-0.449 1.523 0.1504 1.925 0.6869 0.461 0.9519 0.327 1.0389-0.523 0.107-1.048-0.117-1.68-0.527-1.723zm3.394 3.024c-0.204 0.007-0.429 0.153-0.654 0.461-0.239 0.326-0.304 0.747-0.213 1.386 0.113 0.786 0.064 0.954-0.347 1.165-0.529 0.27-0.642 1.074-0.209 1.488 0.43 0.412 0.84 0.304 0.988-0.26 0.21-0.804 1.387-0.898 2.191-0.176 0.343 0.308 0.623 0.464 0.623 0.346s-0.357-0.547-0.793-0.951c-0.667-0.62-0.791-0.884-0.791-1.682 0-1.126-0.345-1.791-0.795-1.777zm-5.5739 2.582a20 20 0 0 0 0.4629 0.584c-0.1363-0.211-0.2919-0.413-0.4629-0.584zm6.7399 3.07c-0.101 0.035-0.144 0.162-0.144 0.385 0 0.226-0.144 0.463-0.32 0.527-0.234 0.086-0.288 0.357-0.198 1.004 0.017 0.121 0.022 0.218 0.028 0.319a20 20 0 0 0 0.832 0.427c-0.014-0.346 0.049-0.753 0.23-1.263 0.307-0.866 0.318-1.083 0.068-1.235-0.234-0.142-0.394-0.199-0.496-0.164z"/>
  <circle id="path4240" opacity="0" style="color:#000000" stroke-width=".45455" clip-path="url(#clipPath4186)" transform="matrix(2,0,0,2,-548,-28)" cy="26" cx="286" r="10"/>
  <circle id="path4242" opacity="0" style="color:#000000" stroke-width=".90909" clip-path="url(#clipPath4186)" transform="matrix(2,0,0,2,-548,-28)" cy="26" cx="286" r="10"/>
  <path id="rect3436" opacity=".2" fill="#fff" d="m24 4c-11.079 0-19.998 8.92-19.998 20 0 0.16772-0.004 0.33329 0 0.5 0.2642-10.846 9.087-19.5 19.998-19.5s19.734 8.6536 19.998 19.5c0.004-0.16671 0-0.33228 0-0.5 0-11.08-8.919-20-19.998-20z"/>
  <path id="circle4330" opacity=".3" style="color:#000000" d="m43.979 23.418a20 20 0 0 1 -19.979 19.582 20 20 0 0 1 -19.978 -19.418 20 20 0 0 0 -0.022 0.418 20 20 0 0 0 20 20 20 20 0 0 0 20 -20 20 20 0 0 0 -0.021 -0.582z"/>
 </g>
</svg>
